X:1427
T:The Humors of Ballinacarrig
M:C|
L:1/8
B:O'Neill's 1427
Z:"Transcribed by Bob Safranek, rjs@gsp.org"
K:Em
BE 3FEDE d2 cB|AD 3FED FAAc|BEEF GABc|1 dcdB e2 dc:|2 dBAc BE E2||
fedef agfge|defg afdf|edef   gfec|dBAc BE E2|
fedef agfge|defg afdf|g2 fd 3efg fe|dBAc BE E2|]
